usr/share/icons/biglinux-icons-material-dark/16/actions/taxes-finances.svg

<svg xmlns="http://www.w3.org/2000/svg" viewBox="0 0 16 16">
  <defs id="defs3051">
    <style type="text/css" id="current-color-scheme">
      .ColorScheme-Text {
        color:#dedede;
      }
      </style>
  </defs>
 <path style="fill:currentColor;fill-opacity:1;stroke:none" 
     d="M 7.5 2 L 7.5 3.125 C 6.657105 3.2031674 5.9928939 3.4158583 5.5 3.8125 C 4.95761 4.2447 4.6875 4.88402 4.6875 5.71875 C 4.6875 6.88402 5.38454 7.63984 6.8125 8 L 7.5 8.1875 L 7.5 11.875 C 6.6128298 11.795706 5.7812569 11.601634 5 11.21875 L 4.65625 12.125 C 4.97403 12.31991 5.40785 12.5037 5.9375 12.65625 C 6.4023232 12.785363 6.9259807 12.84223 7.5 12.875 L 7.5 14 L 7.75 14 L 8.34375 14 L 8.5 14 L 8.5 12.875 C 9.349811 12.806571 10.03337 12.547817 10.53125 12.09375 C 11.06515 11.61071 11.34374 10.91102 11.34375 10 C 11.34374 9.26271 11.14405 8.7108 10.75 8.3125 C 10.35592 7.90995 9.7627 7.61971 9 7.4375 L 8.5 7.3125 L 8.5 4.0625 C 8.8855531 4.0914438 9.28709 4.1455968 9.65625 4.25 C 10.07998 4.36442 10.39776 4.51219 10.65625 4.65625 L 10.96875 3.75 C 10.328483 3.3513511 9.507613 3.1129214 8.5 3.0625 L 8.5 2 L 8.34375 2 L 7.75 2 L 7.5 2 z M 7.28125 4.09375 C 7.3467078 4.0827676 7.4301976 4.1016886 7.5 4.09375 L 7.5 7.0625 L 7.21875 7 C 6.74841 6.8856 6.39353 6.71611 6.15625 6.5 C 5.9232 6.27967 5.81249 5.98518 5.8125 5.625 C 5.8124912 4.76855 6.2950199 4.2592177 7.28125 4.09375 z M 8.5 8.40625 L 8.6875 8.46875 C 9.26376 8.61282 9.65889 8.80827 9.875 9.0625 C 10.09534 9.31251 10.18749 9.65573 10.1875 10.0625 C 10.18749 11.19556 9.6245633 11.797264 8.5 11.90625 L 8.5 8.40625 z "
     class="ColorScheme-Text"
     />
</svg>

<svg xmlns="http://www.w3.org/2000/svg" viewBox="0 0 16 16">
<defs id="defs3051">
<style id="current-color-scheme" type="text/css">
.ColorScheme-Text{color:#dedede}
</style>
</defs>
<path d="M7.5 2v1.125c-.843.078-1.507.29-2 .688-.542.432-.812 1.071-.812 1.906 0 1.165.697 1.92 2.125 2.281l.687.188v3.687c-.887-.08-1.719-.273-2.5-.656l-.344.906c.318.195.752.379 1.282.531.464.13.988.186 1.562.219V14h1v-1.125c.85-.068 1.533-.327 2.031-.781.534-.483.813-1.183.813-2.094 0-.737-.2-1.29-.594-1.687-.394-.403-.987-.693-1.75-.876l-.5-.125v-3.25c.386.03.787.084 1.156.188.424.114.742.262 1 .406l.313-.906c-.64-.399-1.461-.637-2.469-.687V2zm-.219 2.094c.066-.011.15.008.219 0v2.968L7.219 7c-.47-.114-.825-.284-1.063-.5-.233-.22-.344-.515-.343-.875 0-.856.482-1.366 1.468-1.531M8.5 8.406l.188.063q.863.215 1.187.594c.22.25.312.593.313 1 0 1.133-.563 1.734-1.688 1.843z" class="ColorScheme-Text" style="fill:currentColor;fill-opacity:1;stroke:none"/>
</svg>
